website/src/static/charts/bubblechart.svg

<svg xmlns="http://www.w3.org/2000/svg" width="146" height="80" fill="none" viewBox="0 0 146 80">
  <circle cx="7.5" cy="50.5" r="6.5" stroke="#fff" stroke-width="2" opacity=".5"/>
  <circle cx="7.5" cy="50.5" r="5.5" fill="#E14ADF" opacity=".5"/>
  <path fill="#E14ADF" d="M8 47H7v3H4v1h3v3h1v-3h3v-1H8v-3Z"/>
  <circle cx="16.5" cy="61.5" r="11.5" stroke="#fff" stroke-width="2" opacity=".5"/>
  <circle cx="16.5" cy="61.5" r="10.5" fill="#AB6CFE" opacity=".5"/>
  <path fill="#AB6CFE" d="M17 58h-1v3h-3v1h3v3h1v-3h3v-1h-3v-3Z"/>
  <circle cx="51.5" cy="30.5" r="18.5" stroke="#fff" stroke-width="2" opacity=".5"/>
  <circle cx="51.5" cy="30.5" r="17.5" fill="#FF4953" opacity=".5"/>
  <path fill="#FF4953" d="M52 27h-1v3h-3v1h3v3h1v-3h3v-1h-3v-3Z"/>
  <circle cx="108" cy="49" r="22" stroke="#fff" stroke-width="2" opacity=".5"/>
  <circle cx="108" cy="49" r="21" fill="#FF8C43" opacity=".5"/>
  <path fill="#FF8C43" d="M108 45h-1v3h-3v1h3v3h1v-3h3v-1h-3v-3Z"/>
  <circle cx="25.431" cy="23.5" r="11.5" stroke="#fff" stroke-width="2" opacity=".5"/>
  <circle cx="25.431" cy="23.5" r="10.5" fill="#66C030" opacity=".5"/>
  <path fill="#66C030" d="M25.93 20h-1v3h-3v1h3v3h1v-3h3v-1h-3v-3Z"/>
  <circle cx="55.5" cy="53.5" r="19.5" stroke="#fff" stroke-width="2" opacity=".5"/>
  <circle cx="55.5" cy="53.5" r="18.5" fill="#008FF8" opacity=".5"/>
  <path fill="#008FF8" d="M56 50h-1v3h-3v1h3v3h1v-3h3v-1h-3v-3Z"/>
</svg>

<svg width="146" height="80" viewBox="0 0 146 80" fill="none" xmlns="http://www.w3.org/2000/svg">
<circle opacity="0.5" cx="7.5" cy="50.5" r="6.5" stroke="white" stroke-width="2"/>
<circle opacity="0.5" cx="7.5" cy="50.5" r="5.5" fill="#E14ADF"/>
<path d="M8 47H7V50H4V51H7V54H8V51H11V50H8V47Z" fill="#E14ADF"/>
<circle opacity="0.5" cx="16.5" cy="61.5" r="11.5" stroke="white" stroke-width="2"/>
<circle opacity="0.5" cx="16.5" cy="61.5" r="10.5" fill="#AB6CFE"/>
<path d="M17 58H16V61H13V62H16V65H17V62H20V61H17V58Z" fill="#AB6CFE"/>
<circle opacity="0.5" cx="51.5" cy="30.5" r="18.5" stroke="white" stroke-width="2"/>
<circle opacity="0.5" cx="51.5" cy="30.5" r="17.5" fill="#FF4953"/>
<path d="M52 27H51V30H48V31H51V34H52V31H55V30H52V27Z" fill="#FF4953"/>
<circle opacity="0.5" cx="108" cy="49" r="22" stroke="white" stroke-width="2"/>
<circle opacity="0.5" cx="108" cy="49" r="21" fill="#FF8C43"/>
<path d="M108 45H107V48H104V49H107V52H108V49H111V48H108V45Z" fill="#FF8C43"/>
<circle opacity="0.5" cx="25.4307" cy="23.5" r="11.5" stroke="white" stroke-width="2"/>
<circle opacity="0.5" cx="25.4307" cy="23.5" r="10.5" fill="#66C030"/>
<path d="M25.9307 20H24.9307V23H21.9307V24H24.9307V27H25.9307V24H28.9307V23H25.9307V20Z" fill="#66C030"/>
<circle opacity="0.5" cx="55.5" cy="53.5" r="19.5" stroke="white" stroke-width="2"/>
<circle opacity="0.5" cx="55.5" cy="53.5" r="18.5" fill="#008FF8"/>
<path d="M56 50H55V53H52V54H55V57H56V54H59V53H56V50Z" fill="#008FF8"/>
</svg>
